icons/typography-24.svg

<svg width="24" height="24" viewBox="0 0 24 24" xmlns="http://www.w3.org/2000/svg">
  <path fill-rule="evenodd" clip-rule="evenodd" d="M10.4136 15L12.0448 19.5053C12.1858 19.8948 12.6159 20.0962 13.0054 19.9552C13.3948 19.8142 13.5962 19.3841 13.4552 18.9947L8.37544 4.9648C8.16578 4.38573 7.61588 4 7.00002 4C6.38416 4 5.83426 4.38573 5.6246 4.9648L0.544822 18.9946C0.403806 19.3841 0.605219 19.8141 0.994689 19.9551C1.38416 20.0962 1.8142 19.8947 1.95522 19.5053L3.58645 15H10.4136ZM9.87048 13.5L7.00002 5.57207L4.12955 13.5H9.87048Z"/>
  <path fill-rule="evenodd" clip-rule="evenodd" d="M14.9457 9.90219C15.8586 8.219 17.649 7.69727 19.23 7.69727C20.2766 7.69727 21.314 8.00888 22.1083 8.58156C22.909 9.15885 23.5 10.0368 23.5 11.13V19.25C23.5 19.6642 23.1642 20 22.75 20C22.3358 20 22 19.6642 22 19.25V19.1894C21.9856 19.1981 21.971 19.2067 21.9564 19.2152C21.0634 19.735 19.8599 20.0002 18.505 20.0002C17.4539 20.0002 16.4571 19.6848 15.7097 19.0524C14.9498 18.4094 14.4926 17.4739 14.4926 16.3502C14.4926 15.4312 14.842 14.4887 15.6607 13.787C16.4706 13.0928 17.6612 12.7002 19.23 12.7002H22V11.13C22 10.6267 21.7373 10.1633 21.2311 9.7983C20.7185 9.42875 19.9958 9.19727 19.23 9.19727C17.911 9.19727 16.8014 9.62709 16.2643 10.6173C16.0668 10.9814 15.6115 11.1165 15.2474 10.919C14.8833 10.7216 14.7482 10.2663 14.9457 9.90219ZM22 14.2002H19.23C17.8989 14.2002 17.0957 14.5326 16.6369 14.9259C16.1868 15.3116 15.9926 15.8191 15.9926 16.3502C15.9926 17.039 16.2603 17.5534 16.6786 17.9073C17.1093 18.2718 17.7436 18.5002 18.505 18.5002C19.6877 18.5002 20.6066 18.2652 21.2018 17.9188C21.7845 17.5796 22 17.179 22 16.7852L22 14.2002Z"/>
</svg>

<svg xmlns="http://www.w3.org/2000/svg" width="24" height="24" viewBox="0 0 24 24"><path fill-rule="evenodd" d="M10.414 15l1.63 4.505a.75.75 0 001.411-.51l-5.08-14.03a1.463 1.463 0 00-2.75 0l-5.08 14.03a.75.75 0 101.41.51L3.586 15h6.828zm-.544-1.5L7 5.572 4.13 13.5h5.74zm5.076-3.598c.913-1.683 2.703-2.205 4.284-2.205 1.047 0 2.084.312 2.878.885.801.577 1.392 1.455 1.392 2.548v8.12a.75.75 0 01-1.5 0v-.06a3.123 3.123 0 01-.044.025c-.893.52-2.096.785-3.451.785-1.051 0-2.048-.315-2.795-.948-.76-.643-1.217-1.578-1.217-2.702 0-.919.349-1.861 1.168-2.563.81-.694 2-1.087 3.569-1.087H22v-1.57c0-.503-.263-.967-.769-1.332-.513-.37-1.235-.6-2.001-.6-1.319 0-2.429.43-2.966 1.42a.75.75 0 01-1.318-.716zM22 14.2h-2.77c-1.331 0-2.134.333-2.593.726a1.82 1.82 0 00-.644 1.424c0 .689.267 1.203.686 1.557.43.365 1.065.593 1.826.593 1.183 0 2.102-.235 2.697-.581.582-.34.798-.74.798-1.134V14.2z"/></svg>
